poi/svg/2416.svg

<?xml version="1.0" encoding="UTF-8" standalone="no"?>
<svg
   xmlns:dc="http://purl.org/dc/elements/1.1/"
   xmlns:cc="http://creativecommons.org/ns#"
   xmlns:rdf="http://www.w3.org/1999/02/22-rdf-syntax-ns#"
   xmlns:svg="http://www.w3.org/2000/svg"
   xmlns="http://www.w3.org/2000/svg"
   xmlns:sodipodi="http://sodipodi.sourceforge.net/DTD/sodipodi-0.dtd"
   xmlns:inkscape="http://www.inkscape.org/namespaces/inkscape"
   inkscape:version="1.0 (4035a4fb49, 2020-05-01)"
   sodipodi:docname="2416.svg"
   id="svg20"
   version="1.2"
   viewBox="0 0 42.519639 42.519639"
   height="14.999999mm"
   width="14.999999mm">
  <metadata
     id="metadata24">
    <rdf:RDF>
      <cc:Work
         rdf:about="">
        <dc:format>image/svg+xml</dc:format>
        <dc:type
           rdf:resource="http://purl.org/dc/dcmitype/StillImage" />
        <dc:title>Qt SVG Document</dc:title>
      </cc:Work>
    </rdf:RDF>
  </metadata>
  <sodipodi:namedview
     inkscape:current-layer="svg20"
     inkscape:window-maximized="0"
     inkscape:window-y="0"
     inkscape:window-x="0"
     inkscape:cy="28.346482"
     inkscape:cx="28.346482"
     inkscape:zoom="5.8410537"
     showgrid="false"
     id="namedview22"
     inkscape:window-height="480"
     inkscape:window-width="1034"
     inkscape:pageshadow="2"
     inkscape:pageopacity="0"
     guidetolerance="10"
     gridtolerance="10"
     objecttolerance="10"
     borderopacity="1"
     bordercolor="#666666"
     pagecolor="#ffffff" />
  <title
     id="title2">Qt SVG Document</title>
  <desc
     id="desc4">Generated with Qt</desc>
  <defs
     id="defs6" />
  <g
     transform="translate(5.25984,5.25984)"
     id="g18"
     stroke-linejoin="bevel"
     stroke-linecap="square"
     fill-rule="evenodd"
     stroke-width="1"
     stroke="#000000"
     fill="none">
    <g
       id="g10"
       font-style="normal"
       font-weight="400"
       font-size="7.8px"
       font-family="'MS Shell Dlg 2'"
       stroke="none"
       fill-opacity="1"
       fill="#ec1d24">
      <path
         id="path8"
         d="M 37.2598,16 C 37.2598,27.7415 27.7415,37.2598 16,37.2598 4.25851,37.2598 -5.25984,27.7415 -5.25984,16 -5.25984,4.25851 4.25851,-5.25984 16,-5.25984 27.7415,-5.25984 37.2598,4.25851 37.2598,16"
         fill-rule="evenodd"
         vector-effect="non-scaling-stroke" />
    </g>
    <g
       id="g14"
       font-style="normal"
       font-weight="400"
       font-size="7.8px"
       font-family="'MS Shell Dlg 2'"
       transform="translate(16,9.76378)"
       stroke="none"
       fill-opacity="0.94902"
       fill="#ffffff">
      <path
         id="path12"
         d="M 0.201172,-8.04688 13.4707,0.267578 h -26.623 L 0.117188,-8.04688 H 0.201172 M 0.15918,-4.7085 c -0.461914,0 -0.853841,0.16447 -1.17578,0.49341 -0.32194,0.32894 -0.48291,0.71737 -0.48291,1.16529 0,0.46191 0.16097,0.85384 0.48291,1.17578 0.321939,0.32194 0.713866,0.48291 1.17578,0.48291 0.447916,0 0.836344,-0.16097 1.16528,-0.48291 C 1.6534,-2.19596 1.83187,-2.58789 1.85986,-3.0498 1.83187,-3.49772 1.6534,-3.88615 1.32446,-4.21509 0.995524,-4.54403 0.607096,-4.7085 0.15918,-4.7085 M 13.4707,18.6182 h -26.665 c 0.1399,-0.5459 0.2729,-1.0498 0.3989,-1.5118 0.112,-0.3919 0.21,-0.7663 0.2939,-1.1232 0.084,-0.357 0.14,-0.5914 0.168,-0.7034 h 24.9224 l 0.8818,3.3384 M -8.19727,13.6211 h -3.33833 v -0.168 -9.65818 c 0,-0.04199 -0.0105,-0.09448 -0.0315,-0.15747 -0.021,-0.06299 -0.0455,-0.11548 -0.0735,-0.15747 -0.126,-0.26595 -0.245,-0.5179 -0.357,-0.75586 -0.1119,-0.23795 -0.2379,-0.49691 -0.3779,-0.77685 h 5.01808 c -0.028,0.02799 -0.04549,0.05249 -0.05249,0.07348 -0.007,0.021 -0.0245,0.04549 -0.05249,0.07349 -0.11198,0.23795 -0.22046,0.46891 -0.32544,0.69287 -0.10498,0.22396 -0.21346,0.45491 -0.32544,0.69287 -0.05599,0.11198 -0.08399,0.21696 -0.08399,0.31494 v 9.65818 0.168 m 6.69776,0 h -3.33838 v -0.168 -9.65818 c 0,-0.04199 -0.0105,-0.09448 -0.03149,-0.15747 C -4.89038,3.57446 -4.91488,3.52197 -4.94287,3.47998 -5.05485,3.25602 -5.16333,3.03206 -5.26831,2.80811 -5.37329,2.58415 -5.48177,2.36019 -5.59375,2.13623 -5.62174,2.10824 -5.63574,2.08374 -5.63574,2.06274 c 0,-0.02099 -0.014,-0.04549 -0.04199,-0.07348 h 4.97607 C -0.729655,2.01725 -0.747152,2.04875 -0.75415,2.08374 -0.761149,2.11873 -0.778646,2.15023 -0.806641,2.17822 -0.91862,2.40218 -1.0271,2.62264 -1.13208,2.8396 -1.23706,3.05656 -1.34554,3.28402 -1.45752,3.52197 -1.48551,3.57796 -1.50651,3.62695 -1.52051,3.66895 -1.53451,3.71094 -1.5415,3.75993 -1.5415,3.81592 v 9.67918 c 0.02799,0 0.04199,0.042 0.04199,0.126 M 0.978027,1.94727 H 5.99609 C 5.9681,1.97526 5.9506,1.99976 5.9436,2.02075 5.9366,2.04175 5.91911,2.06624 5.89111,2.09424 5.77913,2.33219 5.66366,2.56315 5.54468,2.78711 5.4257,3.01107 5.31022,3.24202 5.19824,3.47998 5.17025,3.52197 5.15625,3.56746 5.15625,3.61646 c 0,0.04899 0,0.09448 0,0.13647 v 9.65817 0.168 H 1.79688 v -0.168 -9.65817 c 0,-0.09798 -0.028,-0.20296 -0.08399,-0.31494 C 1.51693,2.97607 1.28597,2.51416 1.02002,2.05225 v -0.042 c 0,-0.01399 -0.014,-0.03499 -0.041993,-0.06298 m 11.652873,0 c -0.028,0.02799 -0.042,0.05249 -0.042,0.07348 0,0.021 -0.014,0.04549 -0.042,0.07349 -0.112,0.23795 -0.2205,0.46891 -0.3255,0.69287 C 12.1165,3.01107 12.008,3.24202 11.896,3.47998 11.84,3.59196 11.812,3.69694 11.812,3.79492 v 9.65818 0.168 H 8.47363 V 13.4531 3.79492 C 8.47363,3.69694 8.44564,3.59196 8.38965,3.47998 8.24967,3.21403 8.1237,2.96208 8.01172,2.72412 7.89974,2.48617 7.77376,2.22721 7.63379,1.94727 h 4.99711"
         fill-rule="evenodd"
         vector-effect="none" />
    </g>
    <g
       id="g16"
       font-style="normal"
       font-weight="400"
       font-size="7.8px"
       font-family="'MS Shell Dlg 2'"
       stroke="none"
       fill-opacity="1"
       fill="#ec1d24" />
  </g>
</svg>

<?xml version="1.0" encoding="UTF-8" standalone="no"?>
<svg width="11.2889mm" height="11.2889mm"
 viewBox="0 0 32 32"
 xmlns="http://www.w3.org/2000/svg" xmlns:xlink="http://www.w3.org/1999/xlink"  version="1.2" baseProfile="tiny">
<title>Qt SVG Document</title>
<desc>Generated with Qt</desc>
<defs>
</defs>
<g fill="none" stroke="black" stroke-width="1" fill-rule="evenodd" stroke-linecap="square" stroke-linejoin="bevel" >

<g fill="#ec1d24" fill-opacity="1" stroke="none" transform="matrix(1,0,0,1,0,0)"
font-family="MS Shell Dlg 2" font-size="7.8" font-weight="400" font-style="normal" 
>
<path vector-effect="non-scaling-stroke" fill-rule="evenodd" d="M37.2598,16 C37.2598,27.7415 27.7415,37.2598 16,37.2598 C4.25851,37.2598 -5.25984,27.7415 -5.25984,16 C-5.25984,4.25851 4.25851,-5.25984 16,-5.25984 C27.7415,-5.25984 37.2598,4.25851 37.2598,16 "/>
</g>

<g fill="#ffffff" fill-opacity="0.94902" stroke="none" transform="matrix(1,0,0,1,16,9.76378)"
font-family="MS Shell Dlg 2" font-size="7.8" font-weight="400" font-style="normal" 
>
<path vector-effect="none" fill-rule="evenodd" d="M0.201172,-8.04688 L13.4707,0.267578 L-13.1523,0.267578 L0.117188,-8.04688 L0.201172,-8.04688 M0.15918,-4.7085 C-0.302734,-4.7085 -0.694661,-4.54403 -1.0166,-4.21509 C-1.33854,-3.88615 -1.49951,-3.49772 -1.49951,-3.0498 C-1.49951,-2.58789 -1.33854,-2.19596 -1.0166,-1.87402 C-0.694661,-1.55208 -0.302734,-1.39111 0.15918,-1.39111 C0.607096,-1.39111 0.995524,-1.55208 1.32446,-1.87402 C1.6534,-2.19596 1.83187,-2.58789 1.85986,-3.0498 C1.83187,-3.49772 1.6534,-3.88615 1.32446,-4.21509 C0.995524,-4.54403 0.607096,-4.7085 0.15918,-4.7085 M13.4707,18.6182 L-13.1943,18.6182 C-13.0544,18.0723 -12.9214,17.5684 -12.7954,17.1064 C-12.6834,16.7145 -12.5854,16.3401 -12.5015,15.9832 C-12.4175,15.6262 -12.3615,15.3918 -12.3335,15.2798 L12.5889,15.2798 L13.4707,18.6182 M-8.19727,13.6211 L-11.5356,13.6211 L-11.5356,13.4531 L-11.5356,3.79492 C-11.5356,3.75293 -11.5461,3.70044 -11.5671,3.63745 C-11.5881,3.57446 -11.6126,3.52197 -11.6406,3.47998 C-11.7666,3.21403 -11.8856,2.96208 -11.9976,2.72412 C-12.1095,2.48617 -12.2355,2.22721 -12.3755,1.94727 L-7.35742,1.94727 C-7.38542,1.97526 -7.40291,1.99976 -7.40991,2.02075 C-7.41691,2.04175 -7.43441,2.06624 -7.4624,2.09424 C-7.57438,2.33219 -7.68286,2.56315 -7.78784,2.78711 C-7.89282,3.01107 -8.0013,3.24202 -8.11328,3.47998 C-8.16927,3.59196 -8.19727,3.69694 -8.19727,3.79492 L-8.19727,13.4531 L-8.19727,13.6211 M-1.49951,13.6211 L-4.83789,13.6211 L-4.83789,13.4531 L-4.83789,3.79492 C-4.83789,3.75293 -4.84839,3.70044 -4.86938,3.63745 C-4.89038,3.57446 -4.91488,3.52197 -4.94287,3.47998 C-5.05485,3.25602 -5.16333,3.03206 -5.26831,2.80811 C-5.37329,2.58415 -5.48177,2.36019 -5.59375,2.13623 C-5.62174,2.10824 -5.63574,2.08374 -5.63574,2.06274 C-5.63574,2.04175 -5.64974,2.01725 -5.67773,1.98926 L-0.70166,1.98926 C-0.729655,2.01725 -0.747152,2.04875 -0.75415,2.08374 C-0.761149,2.11873 -0.778646,2.15023 -0.806641,2.17822 C-0.91862,2.40218 -1.0271,2.62264 -1.13208,2.8396 C-1.23706,3.05656 -1.34554,3.28402 -1.45752,3.52197 C-1.48551,3.57796 -1.50651,3.62695 -1.52051,3.66895 C-1.53451,3.71094 -1.5415,3.75993 -1.5415,3.81592 L-1.5415,13.4951 C-1.51351,13.4951 -1.49951,13.5371 -1.49951,13.6211 M0.978027,1.94727 L5.99609,1.94727 C5.9681,1.97526 5.9506,1.99976 5.9436,2.02075 C5.9366,2.04175 5.91911,2.06624 5.89111,2.09424 C5.77913,2.33219 5.66366,2.56315 5.54468,2.78711 C5.4257,3.01107 5.31022,3.24202 5.19824,3.47998 C5.17025,3.52197 5.15625,3.56746 5.15625,3.61646 C5.15625,3.66545 5.15625,3.71094 5.15625,3.75293 L5.15625,13.4111 L5.15625,13.5791 L1.79688,13.5791 L1.79688,13.4111 L1.79688,3.75293 C1.79688,3.65495 1.76888,3.54997 1.71289,3.43799 C1.51693,2.97607 1.28597,2.51416 1.02002,2.05225 L1.02002,2.01025 C1.02002,1.99626 1.00602,1.97526 0.978027,1.94727 M12.6309,1.94727 C12.6029,1.97526 12.5889,1.99976 12.5889,2.02075 C12.5889,2.04175 12.5749,2.06624 12.5469,2.09424 C12.4349,2.33219 12.3264,2.56315 12.2214,2.78711 C12.1165,3.01107 12.008,3.24202 11.896,3.47998 C11.84,3.59196 11.812,3.69694 11.812,3.79492 L11.812,13.4531 L11.812,13.6211 L8.47363,13.6211 L8.47363,13.4531 L8.47363,3.79492 C8.47363,3.69694 8.44564,3.59196 8.38965,3.47998 C8.24967,3.21403 8.1237,2.96208 8.01172,2.72412 C7.89974,2.48617 7.77376,2.22721 7.63379,1.94727 L12.6309,1.94727"/>
</g>

<g fill="#ec1d24" fill-opacity="1" stroke="none" transform="matrix(1,0,0,1,0,0)"
font-family="MS Shell Dlg 2" font-size="7.8" font-weight="400" font-style="normal" 
>
</g>
</g>
</svg>
